src/assets/icons/MyVlog_NonSelected.svg

<svg width="25" height="28" viewBox="0 0 25 28" fill="none" xmlns="http://www.w3.org/2000/svg">
<path d="M23.2955 3.09346L23.3626 3.30819L24.1035 5.88773C24.1706 6.12156 24.1507 6.37179 24.0476 6.59212C23.9445 6.81245 23.765 6.98798 23.5425 7.08623L23.4136 7.1332L9.01684 11.2602H23.9948C24.2382 11.2606 24.4732 11.3492 24.6563 11.5096C24.8394 11.67 24.9582 11.8913 24.9906 12.1326L25 12.2668V23.6733C25 24.6132 24.6415 25.5177 23.9976 26.2023C23.3536 26.8869 22.4728 27.3 21.5347 27.3574L21.3092 27.3641H4.5342C3.59434 27.3642 2.68987 27.0057 2.00527 26.3617C1.32068 25.7178 0.907533 24.8369 0.850116 23.8988L0.843405 23.672V12.409L0.142825 9.96505C-0.116096 9.06156 -0.0205855 8.09334 0.409874 7.25785C0.840334 6.42237 1.57331 5.78259 2.4593 5.46899L2.67404 5.3992L18.7981 0.775638C19.7016 0.516717 20.6698 0.612227 21.5053 1.04269C22.3408 1.47315 22.9806 2.20612 23.2942 3.09212M22.9855 13.272H2.85657V23.672C2.85657 24.4826 3.43233 25.159 4.19599 25.3147L4.36241 25.3416L4.5342 25.3496H21.3105C21.7256 25.3495 22.1259 25.1955 22.4341 24.9173C22.7422 24.6392 22.9363 24.2567 22.9788 23.8438L22.9868 23.672L22.9855 13.272ZM5.23478 6.7601L3.22699 7.3372C2.82822 7.45162 2.48599 7.70974 2.26638 8.0617C2.04678 8.41367 1.96537 8.83452 2.03788 9.24299L2.07814 9.41076L2.53983 11.0226L2.93575 10.9085L5.23478 6.7601ZM11.6178 4.9308L7.97134 5.9763L5.67097 10.1234L9.31881 9.07926L11.6178 4.9308ZM18.0036 3.09883L14.3557 4.14567L12.0567 8.29278L15.7019 7.24862L18.0036 3.09883ZM20.4825 2.78611L18.4411 6.46349L21.889 5.47436L21.4273 3.86383C21.3592 3.62556 21.2391 3.40534 21.0758 3.21899C20.9124 3.03265 20.7098 2.88482 20.4825 2.78611Z" fill="#414141"/>
</svg>

<svg xmlns="http://www.w3.org/2000/svg" width="25" height="28" fill="none" viewBox="0 0 25 28"><path fill="#414141" d="m23.296 3.093.067.215.74 2.58a1.01 1.01 0 0 1-.56 1.198l-.13.047L9.018 11.26h14.978a1.006 1.006 0 0 1 .996.873l.009.134v11.406a3.69 3.69 0 0 1-3.465 3.684l-.226.007H4.534A3.69 3.69 0 0 1 .85 23.9l-.007-.227V12.409l-.7-2.444a3.69 3.69 0 0 1 2.316-4.496l.215-.07L18.798.776a3.69 3.69 0 0 1 4.496 2.316m-.309 10.18H2.857v10.4c0 .81.575 1.487 1.339 1.643l.166.027.172.008h16.777a1.677 1.677 0 0 0 1.668-1.506l.008-.172zM5.235 6.76l-2.008.577a1.68 1.68 0 0 0-1.19 1.906l.041.168.462 1.612.396-.114zm6.383-1.83L7.97 5.977l-2.3 4.147L9.319 9.08zm6.386-1.83-3.648 1.047-2.3 4.147 3.646-1.044zm2.479-.313L18.44 6.463l3.448-.989-.462-1.61a1.68 1.68 0 0 0-.944-1.078"/></svg>
